www/assets/icons/free_breakfast.svg

<svg xmlns="http://www.w3.org/2000/svg" width="24" height="24" viewBox="0 0 24 24" fill='currentColor'><path d="M19 3H3v10c0 2.21 1.79 4 4 4h6c2.21 0 4-1.79 4-4v-3h2a2 2 0 0 0 2-2V5c0-1.11-.89-2-2-2m0 5h-2V5h2zM3 19h16v2H3z"/></svg>

<svg width="24" height="24" viewBox="0 0 24 24" xmlns="http://www.w3.org/2000/svg" fill='currentColor'><path d="M19 3H3V13C3 15.21 4.79 17 7 17H13C15.21 17 17 15.21 17 13V10H19C20.11 10 21 9.1 21 8V5C21 3.89 20.11 3 19 3ZM19 8H17V5H19V8ZM3 19H19V21H3V19Z"/></svg>
